theme-base/src/main/assets/themes/mapsforgeV3/base/symbols/db_poi_viewpoint.svg

<svg enable-background="new 0 0 48 48" height="48" viewBox="0 0 48 48" width="48" xmlns="http://www.w3.org/2000/svg"><path d="m26 24c0-.112-.016-.221-.033-.328l17.741-2.957c-.509-3.07-1.709-5.901-3.447-8.33l-14.637 10.455c-.128-.179-.285-.335-.464-.464l10.455-14.637c-2.43-1.738-5.26-2.938-8.331-3.447l-2.957 17.741c-.106-.018-.215-.033-.327-.033s-.221.015-.328.033l-2.957-17.741c-3.07.509-5.901 1.709-8.33 3.447l10.455 14.637c-.179.128-.335.285-.464.464l-14.637-10.455c-1.738 2.429-2.938 5.26-3.447 8.33l17.741 2.957c-.018.107-.033.216-.033.328s.015.221.033.328l-17.741 2.956c.509 3.071 1.709 5.901 3.447 8.331l14.637-10.455c.128.179.285.336.464.464l-10.455 14.638c2.429 1.737 5.26 2.938 8.33 3.446l2.957-17.741c.107.017.216.033.328.033s.221-.016.328-.033l2.957 17.741c3.071-.509 5.901-1.709 8.331-3.446l-10.456-14.638c.179-.128.336-.285.464-.464l14.637 10.455c1.738-2.43 2.938-5.26 3.447-8.331l-17.741-2.957c.017-.106.033-.215.033-.327z"/></svg>

<?xml version="1.0" encoding="utf-8"?>
<!-- Generator: Adobe Illustrator 15.0.2, SVG Export Plug-In . SVG Version: 6.00 Build 0)  -->
<!DOCTYPE svg PUBLIC "-//W3C//DTD SVG 1.1//EN" "http://www.w3.org/Graphics/SVG/1.1/DTD/svg11.dtd">
<svg version="1.1" id="Vrstva_3" xmlns="http://www.w3.org/2000/svg" xmlns:xlink="http://www.w3.org/1999/xlink" x="0px" y="0px"
	 width="48px" height="48px" viewBox="0 0 48 48" enable-background="new 0 0 48 48" xml:space="preserve">
<path d="M26,24c0-0.112-0.016-0.221-0.033-0.328l17.741-2.957c-0.509-3.07-1.709-5.901-3.447-8.33L25.624,22.84
	c-0.128-0.179-0.285-0.335-0.464-0.464L35.615,7.739c-2.43-1.738-5.26-2.938-8.331-3.447l-2.957,17.741
	C24.221,22.015,24.112,22,24,22s-0.221,0.015-0.328,0.033L20.715,4.292c-3.07,0.509-5.901,1.709-8.33,3.447L22.84,22.376
	c-0.179,0.128-0.335,0.285-0.464,0.464L7.739,12.385c-1.738,2.429-2.938,5.26-3.447,8.33l17.741,2.957
	C22.015,23.779,22,23.888,22,24s0.015,0.221,0.033,0.328L4.292,27.284c0.509,3.071,1.709,5.901,3.447,8.331L22.376,25.16
	c0.128,0.179,0.285,0.336,0.464,0.464L12.385,40.262c2.429,1.737,5.26,2.938,8.33,3.446l2.957-17.741C23.779,25.984,23.888,26,24,26
	s0.221-0.016,0.328-0.033l2.957,17.741c3.071-0.509,5.901-1.709,8.331-3.446L25.16,25.624c0.179-0.128,0.336-0.285,0.464-0.464
	l14.637,10.455c1.738-2.43,2.938-5.26,3.447-8.331l-17.741-2.957C25.984,24.221,26,24.112,26,24z"/>
</svg>
